static/images/mobile/copyright/wikipedia-wordmark-ml.svg

<?xml version="1.0" encoding="UTF-8"?>
<svg width="119px" height="18px" viewBox="0 0 119 18" version="1.1" xmlns="http://www.w3.org/2000/svg" xmlns:xlink="http://www.w3.org/1999/xlink">
    <title>ml-wordmark</title>
    <g id="Page-1" stroke="none" stroke-width="1" fill="none" fill-rule="evenodd">
        <path d="M6.00950776,5.50571577 C7.69431489,5.50571577 9.0754721,6.08781612 10.1529824,7.25198597 C11.2304689,8.41617638 11.7692171,9.89301334 11.7692309,11.6824866 C11.7692171,13.7058256 11.225571,15.1648634 10.1382889,16.0596 L14.7372517,16.0596 L14.7372517,5.78023595 L16.3975807,5.78023595 L16.3975807,17.4932236 L7.58167694,17.4932236 L7.58167694,16.2426169 C9.36443748,15.2258656 10.2558227,13.7159995 10.2558346,11.7129877 C10.2558227,10.3810515 9.83461819,9.27787357 8.99222106,8.40346416 C8.14980314,7.52906504 7.09679386,7.09186547 5.83318925,7.0918552 C4.54997951,7.09186547 3.50186705,7.53922864 2.6888509,8.43396526 C1.87582474,9.32871216 1.46931399,10.4522276 1.46931726,11.8045013 C1.46931399,14.1023604 2.46355123,15.6325743 4.45203105,16.3951326 L3.73206553,17.7067416 C1.24401897,16.6289881 7.10542736e-15,14.6514008 7.10542736e-15,11.7739899 C7.10542736e-15,9.98451664 0.575480257,8.49243941 1.7264478,7.29773762 C2.87740851,6.10306667 4.30509351,5.50571577 6.00950776,5.50571577 Z M16.3535003,0 C17.2742714,0 18.0407648,0.282166007 18.6529822,0.846446636 C19.2651947,1.41076837 19.571305,2.19111559 19.571305,3.18751912 L19.571305,17.4627225 L17.9844423,17.4627225 L17.9844423,3.4010371 C17.9844413,2.24195418 17.4407943,1.65223884 16.3535003,1.63189107 C15.8931152,1.6115433 15.5012976,1.78187879 15.1780465,2.14280505 C14.8547984,2.50377242 14.6931734,2.9231831 14.6931724,3.4010371 C14.6931734,3.9704355 14.7666347,4.39747145 14.9135693,4.68214496 L13.2532413,4.68214496 C13.1748782,4.20429097 13.1356957,3.76708113 13.1356957,3.37053599 C13.1356957,2.39446996 13.4222156,1.58869831 13.9952465,0.953210764 C14.5682815,0.317754049 15.354366,0 16.3535003,0 Z M30.2385476,5.50571577 C31.0417632,5.50571577 31.8058071,5.68874293 32.5306823,6.05476641 C33.3338959,6.49197625 33.8726451,7.06644104 34.1469318,7.77816078 C34.9697337,6.28354521 36.3068116,5.53622715 38.1581673,5.53621687 C40.0584646,5.53622715 41.5522687,6.12340416 42.6395855,7.29773762 C43.7268557,8.47210191 44.2705275,10.0048541 44.2705275,11.8960046 C44.2705275,14.753078 43.0166868,16.735742 40.5090758,17.8440068 L39.6862581,16.5323979 C41.733484,15.7596657 42.7571074,14.2243751 42.7571312,11.9265057 C42.7571074,10.5335673 42.3848811,9.39988824 41.6404492,8.52546856 C40.837202,7.56972974 39.7254189,7.09186547 38.3050999,7.0918552 C37.5214459,7.09186547 36.757401,7.3816362 36.0129642,7.96117766 C35.1705404,8.61190547 34.7493368,9.37446381 34.7493517,10.2488629 L34.7493517,10.4013787 L35.8366467,10.4013787 C38.3834442,10.3810309 39.6568514,11.5808197 39.6568712,14.0006832 C39.6568514,15.0987742 39.3580904,15.9935211 38.7605882,16.6849034 C38.1140701,17.4271345 37.2275827,17.7982552 36.101124,17.7982552 C34.9844272,17.7982552 34.1420192,17.1322768 33.5738979,15.8003304 C33.2996121,16.4103832 32.8465723,16.895883 32.2147794,17.2568298 C31.5829608,17.6177766 30.9340131,17.7982552 30.2679345,17.7982552 C28.6418804,17.7982552 27.5594852,17.2187035 27.020743,16.0596 C26.6778956,17.2187035 25.8354876,17.7982552 24.4935179,17.7982552 C23.4943777,17.7982552 22.7009469,17.4169709 22.1132235,16.6544023 C21.5940626,15.9630097 21.3344851,15.0784367 21.3344851,14.0006832 C21.3344851,11.5808197 22.9409351,10.3708879 26.1538458,10.3708776 C26.1538389,8.97793923 26.5040265,7.81883576 27.2044077,6.89358777 C27.904774,5.96835005 28.9161533,5.50571577 30.2385476,5.50571577 Z M44.1529828,0 C45.073754,0 45.8402473,0.282166007 46.4524637,0.846446636 C47.0646762,1.41076837 47.3707875,2.19111559 47.3707875,3.18751912 L47.3707875,17.4627225 L45.7839248,17.4627225 L45.7839248,3.4010371 C45.7839228,2.24195418 45.2402758,1.65223884 44.1529828,1.63189107 C43.6925967,1.6115433 43.3007791,1.78187879 42.977529,2.14280505 C42.6542809,2.50377242 42.4926559,2.9231831 42.4926539,3.4010371 C42.4926559,3.9704355 42.5661162,4.39747145 42.7130518,4.68214496 L41.0527228,4.68214496 C40.9743597,4.20429097 40.9351782,3.76708113 40.9351782,3.37053599 C40.9351782,2.39446996 41.2216971,1.58869831 41.7947281,0.953210764 C42.367764,0.317754049 43.1538476,0 44.1529828,0 Z M32.9127052,11.9265057 L27.7407085,11.9265057 L27.7407085,12.3992933 C27.7407085,15.0225215 28.6124945,16.3341304 30.3560933,16.3341304 C32.0604887,16.3341304 32.9127052,15.0225215 32.9127052,12.3992933 L32.9127052,11.9265057 Z M26.1538498,11.9265057 L25.360419,11.9265057 C23.6560067,11.9265057 22.803807,12.6077346 22.803807,13.9701821 C22.803807,14.5903986 22.9556325,15.1191117 23.2592953,15.5563113 C23.6021317,16.0545233 24.0625168,16.3036293 24.6404535,16.3036293 C25.1204249,16.3036293 25.5073446,16.1053619 25.8012138,15.7088271 C26.095071,15.3122922 26.2420086,14.8445915 26.2420086,14.3057045 C26.2420086,14.0820229 26.2224113,13.6854881 26.1832347,13.1161102 C26.1440482,12.6178982 26.1342466,12.2213736 26.1538498,11.9265057 Z M35.6309423,11.9265057 L34.6611929,11.9265057 C34.6415898,11.9570273 34.6317969,12.1908725 34.6317969,12.6280618 L34.6317969,13.5583967 L34.6317969,13.5583967 C34.6317969,14.2192882 34.7640313,14.8039166 35.0285244,15.3122922 C35.3517577,15.9121814 35.8023481,16.2121158 36.3802957,16.2121158 C36.919028,16.2121158 37.3402316,15.9935211 37.6439092,15.5563113 C37.9475492,15.1191117 38.0993974,14.5903986 38.0993974,13.9701821 C38.0993974,12.6077346 37.2765599,11.9265057 35.6309423,11.9265057 Z M30.2973204,7.0918552 C29.5528569,7.0918552 28.9406414,7.37401093 28.460674,7.93829155 C27.9806887,8.50260301 27.7407085,9.17619638 27.7407085,9.95909221 L27.7407085,10.3708776 L32.9127052,10.3708776 L32.9127052,9.95909221 C32.9127052,9.08469308 32.6873967,8.38821361 32.2368191,7.86966408 C31.7862168,7.3511351 31.1397176,7.0918552 30.2973204,7.0918552 Z M64.9879044,5.81074733 L64.9879044,17.4932236 L54.967159,17.4932236 L54.9377741,16.4866359 C55.9662874,15.9477592 56.4707528,15.0733601 56.4511714,13.863418 C56.4511625,13.0805222 56.1646456,12.4170924 55.5916206,11.8731287 C55.0185787,11.3291753 54.3402451,11.0571935 53.5566159,11.0571832 C52.7729748,11.0571935 52.0897434,11.3240884 51.5069188,11.8578782 C50.9240863,12.3916783 50.6326715,13.0398575 50.6326745,13.8024158 C50.6326715,14.9716829 51.1273413,15.7952537 52.1166849,16.273118 L51.4261063,17.5847372 C49.8980135,16.7916675 49.1339716,15.5308971 49.1339716,13.8024158 C49.1339716,12.5823204 49.5747644,11.5553952 50.4563569,10.7216505 C51.3379435,9.8879264 52.3811572,9.47105405 53.5860028,9.47105405 C54.8104259,9.47105405 55.8781286,9.89301334 56.789114,10.7369114 C57.7000806,11.5808197 58.1261819,12.6026476 58.06742,13.8024158 C58.0282236,14.6768252 57.8176253,15.4393835 57.4356142,16.0901114 L63.3716549,16.0901114 L63.3716549,5.81074733 L64.9879044,5.81074733 Z M64.4736374,0.061012477 C66.8833158,0.061012477 68.0881555,1.27096481 68.0881585,3.6908181 L68.1175434,17.4932236 L66.5159873,17.4932236 L66.4866024,3.8128225 C66.4866014,3.19261634 66.3372204,2.67407708 66.0384604,2.25719446 C65.7396984,1.84034266 65.301353,1.63191163 64.7234222,1.63189107 L64.5911831,1.63189107 C65.0809551,2.08944868 65.3258411,2.59782433 65.3258421,3.15701802 C65.3258411,3.73658003 65.1152398,4.25004262 64.6940353,4.69739551 C64.2728318,5.14477924 63.7683663,5.3684711 63.180639,5.36845055 C62.5635277,5.3684711 62.0345741,5.13461563 61.5937763,4.66689441 C61.1529845,4.19920403 60.9325837,3.64507673 60.9325837,3.00450224 C60.9325837,2.0487737 61.3097118,1.29637897 62.063958,0.747318061 C62.7104592,0.289791282 63.5136857,0.061012477 64.4736374,0.061012477 Z M63.180638,2.05892703 C62.6614811,2.05894758 62.4018996,2.38430635 62.4018996,3.03501362 C62.4018996,3.65524033 62.6614811,3.96533828 63.180638,3.96533828 C63.6997979,3.96533828 63.9593753,3.65524033 63.9593753,3.03501362 C63.9593753,2.38430635 63.6997979,2.05894758 63.180638,2.05892703 Z M91.3915264,5.36845055 C93.6444538,6.61906759 94.770962,8.71358266 94.770962,11.6519855 C94.770962,13.3397918 94.3301385,14.7581649 93.4485707,15.9070945 C92.4983919,17.1475274 91.2298795,17.7677438 89.6430407,17.7677438 C88.007181,17.7677438 86.7876489,17.1373638 85.9844412,15.8765934 C85.2007882,17.1373638 84.0253355,17.7677438 82.4580799,17.7677438 C80.9691588,17.7677438 79.7888082,17.3000431 78.9170252,16.3646315 C78.0452204,15.4292199 77.6093234,14.2650398 77.6093333,12.8720911 L77.6093333,10.6453978 C77.6093234,9.68965897 77.3595396,8.85338622 76.8599808,8.13655898 C76.3604053,7.41976258 75.6796223,7.0613541 74.81763,7.06134382 C73.7107387,7.0613541 72.8389448,7.55956614 72.2022452,8.55596966 C71.6145148,9.45072684 71.3206516,10.5437309 71.3206556,11.8350024 C71.3206516,14.0616854 72.2267303,15.6579885 74.0388916,16.6239012 L73.186688,17.8440068 C70.9631188,16.5934001 69.8513376,14.580235 69.8513376,11.8045013 C69.8513376,10.0556927 70.2627445,8.60173159 71.0855642,7.44262812 C72.0063324,6.15136693 73.2503537,5.50572605 74.81763,5.50571577 C76.2967346,5.50572605 77.4379037,6.08527778 78.241139,7.2443607 C78.9464012,8.25095866 79.2990362,9.54223014 79.2990481,11.1181854 L79.2990481,12.9330933 C79.2990362,13.8888424 79.5390244,14.6463241 80.0190136,15.2055281 C80.55775,15.8562559 81.3315895,16.1816147 82.3405343,16.1816147 C83.1437459,16.1816147 83.8000407,15.9045562 84.3094198,15.3504186 C84.8187663,14.7962913 85.0734479,14.0921968 85.0734647,13.2381146 L85.0734647,5.71923375 L86.8219524,5.71923375 L86.8219524,13.2381146 C86.8219336,14.0311843 87.1084496,14.7200385 87.6815023,15.3046669 C88.2545164,15.8892953 88.9426456,16.1816147 89.7458929,16.1816147 C90.8233695,16.1816147 91.6853658,15.7037401 92.3318937,14.747991 C92.8706142,13.9142566 93.1399893,12.9025922 93.140019,11.7129877 C93.1399893,9.34396271 92.277995,7.65615638 90.5540182,6.64955841 L91.3915264,5.36845055 Z M94.6974997,0 C95.6182639,0 96.3847572,0.282166007 96.9969796,0.846446636 C97.6091921,1.41076837 97.9152984,2.19111559 97.9152984,3.18751912 L97.9152984,17.4627225 L96.3284328,17.4627225 L96.3284328,3.4010371 C96.3284328,2.24195418 95.7847917,1.65223884 94.6974997,1.63189107 C94.2371126,1.6115433 93.8452871,1.78187879 93.522043,2.14280505 C93.1987889,2.50377242 93.0371718,2.9231831 93.0371619,3.4010371 C93.0371718,3.9704355 93.1106242,4.39747145 93.2575687,4.68214496 L91.5972308,4.68214496 C91.5189172,4.20429097 91.4796911,3.76708113 91.4796911,3.37053599 C91.4796911,2.39446996 91.766214,1.58869831 92.33924,0.953210764 C92.9122759,0.317754049 93.6983625,0 94.6974997,0 Z M119.000008,10.996181 C119.000008,12.9076792 118.436744,14.4988953 117.310285,15.7698293 C116.08584,17.1221132 114.401028,17.8135057 112.255839,17.8440068 C111.050987,17.8440068 110.218368,17.6101514 109.758001,17.1424404 C109.160461,17.6101514 108.229895,17.8287563 106.966293,17.7982552 C104.830876,17.7982552 103.087294,17.1424507 101.735528,15.8308315 C100.383752,14.5192328 99.7078684,12.806002 99.7078684,10.6911494 C99.7078684,9.18637027 100.053151,7.95101405 100.743737,6.98509107 C101.434312,6.01918864 102.333048,5.53617577 103.439933,5.53617577 C104.801491,5.53617577 105.795728,6.09544139 106.422652,7.2138596 C107.18668,6.09544139 108.430709,5.53617577 110.154717,5.53617577 C111.359539,5.53617577 112.366022,6.02935225 113.174158,7.01559217 C113.982273,8.00185264 114.386336,9.15078222 114.386346,10.4623809 C114.425552,12.9432672 113.494946,14.8903432 111.594648,16.3036293 C111.917882,16.3646726 112.26072,16.3950915 112.62317,16.3950915 C113.906355,16.3950915 115.00834,15.9070534 115.929134,14.9309668 C116.889065,13.8735508 117.369045,12.5416043 117.369065,10.9351274 C117.369045,9.16599167 116.776416,7.72729136 115.591187,6.61901621 L116.854799,5.53617577 C118.284918,6.9494722 119.000008,8.76945681 119.000008,10.9961399 L119.000008,10.996181 Z M112.711325,11.0267026 C112.711325,9.87778334 112.490918,8.95253535 112.050134,8.25096894 C111.540759,7.478247 110.815898,7.09187575 109.87554,7.09187575 C108.91558,7.09187575 108.176026,7.49858449 107.656879,8.31197114 C107.255252,8.99321033 107.054458,9.83710836 107.054458,10.8436858 C107.054458,13.0500416 107.975212,14.6514213 109.816771,15.6478454 C110.619985,15.271648 111.303215,14.6514213 111.866469,13.7871858 C112.429693,12.9229503 112.711325,12.0027892 112.711325,11.0267026 L112.711325,11.0267026 Z M108.068288,16.2731385 C106.324686,14.8395252 105.45289,12.9788656 105.4529,10.69117 C105.45289,8.29164392 104.781908,7.09187575 103.439933,7.09187575 C102.832612,7.09187575 102.330593,7.46553478 101.933886,8.21284256 C101.53716,8.96016062 101.338811,9.78626977 101.338811,10.69117 C101.338811,12.3484855 101.860414,13.7083845 102.903628,14.7708874 C103.946843,15.8334006 105.247186,16.3748157 106.804666,16.3951532 C107.284637,16.415501 107.705837,16.3748054 108.068288,16.2731385 L108.068288,16.2731385 Z" id="ml-wordmark" fill="#000000" fill-rule="nonzero"></path>
    </g>
</svg>

<svg xmlns="http://www.w3.org/2000/svg" width="119" height="18"><path fill="#000" fill-rule="nonzero" d="M6.01 5.506c1.684 0 3.065.582 4.143 1.746 1.077 1.164 1.616 2.641 1.616 4.43 0 2.024-.543 3.483-1.63 4.378h4.598V5.78h1.66v11.713H7.583v-1.25c1.782-1.017 2.674-2.527 2.674-4.53 0-1.332-.421-2.435-1.264-3.31-.842-.874-1.895-1.311-3.159-1.311-1.283 0-2.331.447-3.144 1.342-.813.895-1.22 2.018-1.22 3.37 0 2.298.995 3.829 2.983 4.591l-.72 1.312C1.244 16.629 0 14.65 0 11.774c0-1.79.575-3.282 1.726-4.476 1.151-1.195 2.58-1.792 4.284-1.792ZM16.354 0c.92 0 1.687.282 2.299.846.612.565.918 1.345.918 2.342v14.275h-1.587V3.4c0-1.159-.543-1.749-1.63-1.77-.46-.02-.853.15-1.176.512-.323.36-.485.78-.485 1.258 0 .57.074.996.22 1.281h-1.66a8.158 8.158 0 0 1-.117-1.311c0-.977.286-1.782.86-2.418C14.567.318 15.353 0 16.353 0Zm13.885 5.506c.803 0 1.567.183 2.292.549.803.437 1.342 1.011 1.616 1.723.823-1.494 2.16-2.242 4.011-2.242 1.9 0 3.394.587 4.482 1.762 1.087 1.174 1.63 2.707 1.63 4.598 0 2.857-1.253 4.84-3.76 5.948l-.824-1.312c2.047-.772 3.071-2.308 3.071-4.605 0-1.393-.372-2.527-1.117-3.402-.803-.955-1.915-1.433-3.335-1.433-.784 0-1.548.29-2.292.87-.842.65-1.264 1.412-1.264 2.287v.152h1.088c2.546-.02 3.82 1.18 3.82 3.6 0 1.098-.299 1.993-.896 2.684-.647.742-1.533 1.113-2.66 1.113-1.117 0-1.959-.666-2.527-1.998-.274.61-.727 1.096-1.36 1.457-.631.36-1.28.541-1.946.541-1.626 0-2.709-.58-3.247-1.738-.343 1.159-1.186 1.738-2.527 1.738-1 0-1.793-.381-2.38-1.144-.52-.691-.78-1.576-.78-2.653 0-2.42 1.607-3.63 4.82-3.63 0-1.393.35-2.552 1.05-3.477.7-.926 1.712-1.388 3.035-1.388ZM44.153 0c.92 0 1.687.282 2.3.846.612.565.918 1.345.918 2.342v14.275h-1.587V3.4c0-1.159-.544-1.749-1.631-1.77-.46-.02-.852.15-1.175.512-.324.36-.485.78-.485 1.258 0 .57.073.996.22 1.281h-1.66a8.158 8.158 0 0 1-.118-1.311c0-.977.287-1.782.86-2.418C42.368.318 43.154 0 44.153 0Zm-11.24 11.927H27.74v.472c0 2.624.871 3.935 2.615 3.935 1.704 0 2.557-1.311 2.557-3.935v-.472Zm-6.76 0h-.793c-1.704 0-2.556.68-2.556 2.043 0 .62.152 1.15.455 1.586.343.499.804.748 1.381.748.48 0 .867-.199 1.161-.595.294-.397.441-.864.441-1.403 0-.224-.02-.62-.059-1.19a8.646 8.646 0 0 1-.03-1.19Zm9.478 0h-.97c-.02.03-.03.264-.03.701v.93c0 .661.133 1.246.398 1.754.323.6.773.9 1.351.9.539 0 .96-.218 1.264-.656.304-.437.455-.966.455-1.586 0-1.362-.822-2.043-2.468-2.043Zm-5.334-4.835c-.744 0-1.356.282-1.836.846-.48.565-.72 1.238-.72 2.021v.412h5.172v-.412c0-.874-.226-1.57-.676-2.09-.45-.518-1.097-.777-1.94-.777Zm34.69-1.281v11.682h-10.02l-.03-1.006c1.03-.54 1.534-1.414 1.514-2.624a2.64 2.64 0 0 0-.86-1.99 2.857 2.857 0 0 0-2.034-.816c-.784 0-1.467.267-2.05.8-.583.535-.874 1.183-.874 1.945 0 1.17.494 1.993 1.484 2.471l-.69 1.312c-1.529-.793-2.293-2.054-2.293-3.783 0-1.22.44-2.247 1.322-3.08.882-.834 1.925-1.25 3.13-1.25 1.224 0 2.292.421 3.203 1.265.911.844 1.337 1.866 1.278 3.065-.039.875-.25 1.637-.631 2.288h5.936V5.81h1.616ZM64.475.06c2.41 0 3.614 1.21 3.614 3.63l.03 13.802h-1.602l-.03-13.68c0-.62-.149-1.139-.448-1.556-.298-.417-.737-.625-1.315-.625h-.132c.49.457.735.966.735 1.525 0 .58-.21 1.093-.632 1.54-.421.448-.926.671-1.513.671-.617 0-1.146-.233-1.587-.701a2.342 2.342 0 0 1-.661-1.662c0-.956.377-1.709 1.131-2.258.646-.457 1.45-.686 2.41-.686ZM63.18 2.059c-.52 0-.78.325-.78.976 0 .62.26.93.78.93.519 0 .778-.31.778-.93 0-.65-.26-.976-.778-.976Zm28.21 3.31c2.253 1.25 3.38 3.345 3.38 6.283 0 1.688-.44 3.106-1.322 4.255-.95 1.24-2.22 1.86-3.806 1.86-1.636 0-2.855-.63-3.659-1.89-.783 1.26-1.959 1.89-3.526 1.89-1.489 0-2.67-.467-3.541-1.402-.872-.936-1.308-2.1-1.308-3.493v-2.227c0-.955-.25-1.792-.749-2.508-.5-.717-1.18-1.076-2.042-1.076-1.107 0-1.98.499-2.616 1.495-.587.895-.881 1.988-.881 3.279 0 2.227.906 3.823 2.718 4.789l-.852 1.22c-2.224-1.25-3.336-3.264-3.336-6.04 0-1.748.412-3.202 1.235-4.361.92-1.292 2.164-1.937 3.732-1.937 1.479 0 2.62.58 3.423 1.738.705 1.007 1.058 2.298 1.058 3.874v1.815c0 .956.24 1.713.72 2.273.539.65 1.313.976 2.322.976.803 0 1.459-.277 1.968-.832.51-.554.764-1.258.764-2.112V5.72h1.749v7.52c0 .792.286 1.481.86 2.066.573.584 1.26.877 2.064.877 1.077 0 1.94-.478 2.586-1.434.539-.834.808-1.845.808-3.035 0-2.369-.862-4.057-2.586-5.063l.838-1.282ZM94.698 0c.921 0 1.688.282 2.3.846.612.565.918 1.345.918 2.342v14.275h-1.587V3.4c0-1.159-.543-1.749-1.63-1.77-.46-.02-.853.15-1.176.512-.323.36-.485.78-.485 1.258 0 .57.074.996.22 1.281h-1.66a8.164 8.164 0 0 1-.117-1.311c0-.977.286-1.782.86-2.418C92.911.318 93.697 0 94.696 0ZM119 10.996c0 1.912-.563 3.503-1.69 4.774-1.224 1.352-2.909 2.044-5.054 2.074-1.205 0-2.038-.234-2.498-.702-.598.468-1.528.687-2.792.656-2.135 0-3.879-.656-5.23-1.967-1.352-1.312-2.028-3.025-2.028-5.14 0-1.505.345-2.74 1.036-3.706.69-.966 1.589-1.449 2.696-1.449 1.361 0 2.356.56 2.983 1.678.764-1.119 2.008-1.678 3.732-1.678 1.205 0 2.211.493 3.02 1.48.807.986 1.211 2.135 1.211 3.446.04 2.481-.891 4.428-2.791 5.842.323.06.666.091 1.028.091 1.283 0 2.385-.488 3.306-1.464.96-1.057 1.44-2.39 1.44-3.996 0-1.769-.593-3.208-1.778-4.316l1.264-1.083C118.285 6.95 119 8.77 119 10.996Zm-6.289.03c0-1.148-.22-2.073-.66-2.775-.51-.773-1.235-1.16-2.175-1.16-.96 0-1.7.408-2.22 1.221-.4.681-.602 1.525-.602 2.532 0 2.206.921 3.807 2.763 4.804.803-.376 1.486-.997 2.05-1.86.563-.865.844-1.785.844-2.761Zm-4.643 5.247c-1.743-1.433-2.615-3.294-2.615-5.582 0-2.4-.671-3.6-2.013-3.6-.607 0-1.11.375-1.506 1.122-.397.747-.595 1.573-.595 2.478 0 1.657.521 3.017 1.565 4.08 1.043 1.062 2.343 1.604 3.9 1.624.48.02.902-.02 1.264-.122Z"/></svg>
